build/img/icon-webpack.svg

<svg width="69" height="69" viewBox="0 0 69 69" fill="none" xmlns="http://www.w3.org/2000/svg">
  <path d="M63.2267 52.882L35.7076 68.4609V56.3266L52.8282 46.8984L63.2267 52.882ZM65.1134 51.1786V18.6246L55.0438 24.4465V45.3675L65.108 51.1732L65.1134 51.1786ZM5.77344 52.882L33.2656 68.4502V56.3266L16.1396 46.8984L5.77344 52.882ZM3.88672 51.1786V18.6246L13.9564 24.4465V45.3675L3.88672 51.1786ZM5.06727 16.5169L33.2926 0.539062V12.2691L15.207 22.2148L15.0615 22.2956L5.06727 16.5169ZM63.9221 16.5169L35.7076 0.539062V12.2691L53.7931 22.2094L53.9387 22.2902L63.9329 16.5169H63.9221Z" fill="#8ED6FB"/>
  <path d="M33.2923 53.5663L16.3711 44.2567V25.8316L33.2923 35.5778V53.5663ZM35.7073 53.5663L52.6284 44.2675V25.8316L35.7073 35.5778V53.5663ZM17.5193 23.7184L34.4998 14.3711L51.4802 23.7184L34.4998 33.5078L17.5193 23.7184Z" fill="#1C78C0"/>
</svg>

<svg width="69" height="69" fill="none" xmlns="http://www.w3.org/2000/svg"><path d="M63.227 52.882l-27.52 15.579V56.327l17.121-9.429 10.399 5.984zm1.886-1.703V18.625l-10.07 5.822v20.92l10.065 5.806.005.006zm-59.34 1.703L33.266 68.45V56.327L16.14 46.898 5.773 52.882zm-1.886-1.703V18.625l10.07 5.822v20.92L3.886 51.18zm1.18-34.662L33.293.539v11.73l-18.086 9.946-.146.08-9.994-5.778zm58.855 0L35.708.539v11.73l18.085 9.94.146.081 9.994-5.773h-.01z" fill="#8ED6FB"/><path d="M33.292 53.566l-16.92-9.31V25.833l16.92 9.746v17.988zm2.415 0l16.921-9.299V25.832l-16.92 9.746v17.988zM17.52 23.718l16.98-9.347 16.981 9.347-16.98 9.79-16.98-9.79z" fill="#1C78C0"/></svg>
